X:97
T: Xin saosao
N: C0121
O: China, Hunan, Jiahe
S: I, 513, 1)]
N: neues Volkslied
R: Xiaodiao, Fengsuge, Banjiage. Xin minge]
M: 2/4
L: 1/8
K: F
AcAc | A2GF | GF2F |
DFDF | D2GF | FD2F |
GFGA | D2GF | FDz2

